src/assets/filled/SecuritySafe.svg

<svg width="24" height="24" viewBox="0 0 24 24"  xmlns="http://www.w3.org/2000/svg">
<path d="M20.9101 11.1198V6.72982C20.9101 5.90982 20.2901 4.97982 19.5201 4.66982L13.9501 2.38982C12.7001 1.87982 11.2901 1.87982 10.0401 2.38982L4.47009 4.66982C3.71009 4.97982 3.09009 5.90982 3.09009 6.72982V11.1198C3.09009 16.0098 6.64009 20.5898 11.4901 21.9298C11.8201 22.0198 12.1801 22.0198 12.5101 21.9298C17.3601 20.5898 20.9101 16.0098 20.9101 11.1198ZM12.7501 12.8698V15.4998C12.7501 15.9098 12.4101 16.2498 12.0001 16.2498C11.5901 16.2498 11.2501 15.9098 11.2501 15.4998V12.8698C10.2401 12.5498 9.50009 11.6098 9.50009 10.4998C9.50009 9.11982 10.6201 7.99982 12.0001 7.99982C13.3801 7.99982 14.5001 9.11982 14.5001 10.4998C14.5001 11.6198 13.7601 12.5498 12.7501 12.8698Z" />
</svg>

<?xml version="1.0" encoding="UTF-8"?>
<svg width="24" height="24" viewBox="0 0 24 24" xmlns="http://www.w3.org/2000/svg">
 <path d="m20.91 11.12v-4.39c0-0.82-0.62-1.75-1.39-2.06l-5.57-2.28c-1.25-0.51-2.66-0.51-3.91 0l-5.57 2.28c-0.76 0.31-1.38 1.24-1.38 2.06v4.39c0 4.89 3.55 9.47 8.4 10.81 0.33 0.09 0.69 0.09 1.02 0 4.85-1.34 8.4-5.92 8.4-10.81zm-8.16 1.75v2.63c0 0.41-0.34 0.75-0.75 0.75s-0.75-0.34-0.75-0.75v-2.63c-1.01-0.32-1.75-1.26-1.75-2.37 0-1.38 1.12-2.5 2.5-2.5s2.5 1.12 2.5 2.5c0 1.12-0.74 2.05-1.75 2.37z"/>
</svg>
